X: 32851
T: Port Proust
R: reel
M: 4/4
K: Gmajor
C4 E4|G4 A4|C2 D2 E4|D4 C4|A4 G4|
c4 de de|d8|cA cd cA c2|c3 d cA GE|D4 C4|
|:c3 d ed e2|d4 c2 A2|c2 d2 cA c2|1 c3 d cA cd:|2 c3 d cA c2||
e3 d e2 g2|e2 d2 e2 c2|d2 A2 c2 G2|A2 c2 d2 A2|
cd e2 d2 d2|c2 d2 c2 G2|A2 G2 E2 c2|A2 G2 A2 E2|
G2 c2 A2 A2|G2 A2 G2 A2|E2 A2 G2 G2|E2 G2 E2 C2|
D2 E2 D4|G2 A2 E2 C2|D3 E GE DC|A, G,4 z3:|

